public/illustrations/_safe.svg

<svg width="352" height="254" viewBox="0 0 352 254" fill="none" xmlns="http://www.w3.org/2000/svg">
<path d="M246.615 234.482C246.657 237.37 246.672 240.117 246.544 242.892C246.544 244.195 246.53 245.497 246.346 246.701C245.85 250.424 243.925 252.293 240.215 252.52C233.603 252.789 227.09 252.746 220.563 252.704C216.202 252.633 214.149 250.467 213.88 245.894C213.654 242.17 213.441 238.46 213.257 234.298C198.122 233.944 183.099 234.142 167.992 233.93C152.885 233.717 138.004 233.887 123.052 233.774C122.698 238.191 122.316 242.481 121.92 246.616C121.311 251.812 119.47 253.369 114.387 253.313C108.554 253.129 102.607 253.1 96.7738 252.916C91.3793 252.775 89.3265 250.608 89.3265 245.256C89.3548 243.373 89.5246 241.448 89.5104 239.423C89.4962 237.398 89.6237 235.926 89.6945 233.59C87.5565 233.76 85.3619 233.66 83.1673 233.547C81.1143 233.406 79.1322 232.967 77.3765 232.188C73.8227 230.489 72.8598 227.374 72.9165 223.594C72.9731 211.12 73.044 198.66 72.9873 186.357C73.0865 157.94 73.0156 129.425 73.1147 101.023C73.1714 73.7817 73.1006 46.5689 73.1289 19.1862C73.1572 17.3031 73.1573 15.2643 73.1856 13.3812C73.2139 7.43455 77.0085 3.56923 83.125 3.71081C90.261 3.90903 97.4393 4.24886 104.604 4.57451C153.295 6.66998 201.944 8.63804 250.636 10.7335C252.08 10.7052 253.411 10.8609 254.785 11.1441C256.455 11.5122 257.942 12.3476 258.961 13.721C259.981 15.0943 260.476 16.7226 260.391 18.3367C260.816 31.7165 261.071 44.9831 261.496 58.363C261.949 77.2364 262.543 96.0815 262.954 114.827C263.464 131.959 263.832 149.105 264.37 166.379C264.823 185.252 265.418 204.097 265.828 222.843C265.97 224.84 265.828 226.893 265.701 228.96C265.276 232.386 263.407 233.802 259.967 233.958C255.634 234.029 251.202 234.255 246.445 234.411L246.615 234.524V234.482ZM83.7054 14.4147C83.6771 84.0891 83.6064 153.636 83.4648 223.48L255.507 224.019C253.765 156.171 251.967 88.7757 250.169 21.3808L83.578 14.5846L83.6912 14.4147H83.7054ZM112.816 233.944L100.922 233.901C100.129 238.276 100.186 239.862 100.951 242.736L112.009 242.963C112.348 239.848 112.476 237.073 112.816 233.958V233.944ZM224.428 234.34C223.692 236.959 224.4 239.565 224.428 242.453L236.152 242.382C236.109 239.494 236.18 237.158 236.194 234.553L224.556 234.312L224.414 234.34H224.428Z" fill="#102185"/>
<path d="M323.057 98.644C322.095 98.8563 321.089 98.9271 320.169 98.6864C319.249 98.4457 318.3 98.0776 317.465 97.5396C316.629 97.0016 316.035 96.2511 315.539 95.345C315.044 94.4388 314.704 93.4902 314.661 92.6407C314.236 84.6269 311.985 76.8539 308.049 70.0294C305.741 66.0367 302.202 63.0351 297.841 61.6617C295.165 60.6423 292.404 59.9343 289.742 59.0565C287.264 58.2919 285.325 56.6779 284.886 54.0161C284.617 52.7701 284.9 51.4109 285.523 50.264C286.146 49.1172 286.967 48.211 288.114 47.5314C290.153 46.2288 292.121 44.6431 294.16 43.3263C296.34 41.9954 298.11 40.1548 299.554 38.1018C300.998 36.0488 301.933 33.6843 302.428 31.2491C303.957 25.5573 304.396 19.5257 303.858 13.7065C303.632 11.2996 303.533 8.85016 303.717 6.34409C303.915 2.53543 305.373 0.624012 308.318 0.14262C309.847 -0.183028 311.476 0.0434939 312.962 0.878851C314.421 1.57262 315.539 2.79027 316.148 4.2486C317.493 7.15111 318.597 10.2377 319.815 13.1685C321.656 17.6993 324.686 21.6779 328.508 24.6228C334.243 29.0403 340.161 32.9764 347.424 34.4489C351.828 35.3834 353.088 39.8858 350.256 43.5387C347.892 46.6536 345.187 49.5561 342.681 52.6993C333.577 64.2244 327.362 77.0096 326.526 91.9611C326.328 93.7451 325.832 95.4441 324.997 96.9307C324.728 97.7095 323.411 98.29 322.887 98.5448L323.057 98.6581V98.644ZM314.321 24.6228C313.727 27.936 313.146 31.2491 312.254 34.4914C311.221 37.762 309.748 40.976 307.894 43.836C305.883 46.5828 303.802 49.0606 301.395 51.3259C310.499 54.5824 316.233 61.0104 320.084 70.171C324.955 59.8494 330.207 50.6039 337.542 42.3636C328.423 37.6629 320.594 32.2543 314.279 24.4954L314.307 24.637L314.321 24.6228Z" fill="#102185"/>
<path d="M46.638 114.53C45.5336 114.77 44.5 114.7 43.4098 114.36C42.3196 114.02 41.4842 113.468 40.7479 112.76C37.8454 110.055 34.9429 107.351 31.9413 104.817C28.3733 101.674 23.7576 99.7764 19.0286 99.3516C15.3615 99.1251 11.6095 99.21 7.89992 99.4365C5.18146 99.5923 2.67539 99.4082 1.00466 97.0154C-0.666058 94.6226 -0.0430908 92.1732 1.34446 89.8512C2.73201 87.5291 4.10529 85.193 5.66275 82.9843C11.2129 75.1263 13.62 65.4843 12.2749 55.913C11.9776 54.5255 12.0908 53.053 12.2324 51.7221C12.3032 50.6885 12.6714 49.7399 13.351 48.8762C14.0589 48.14 14.9367 47.517 15.9136 47.3046C16.8905 47.0922 18.0516 47.1347 19.0003 47.5028C19.9489 47.871 20.8267 48.5647 21.3081 49.4709C25.315 55.2759 31.3465 57.7395 37.8312 58.943C42.3053 59.5659 47.0344 60.0049 51.5368 60.0473C55.7844 60.288 58.4179 63.771 56.9595 67.7071C56.8038 68.316 56.4782 68.8257 56.1526 69.3354C50.8572 76.9952 49.852 85.7593 49.5971 94.6509C49.4414 99.3233 49.9794 103.84 50.1068 108.441C50.1776 111.471 48.3795 113.878 46.4398 114.303L46.638 114.544V114.53ZM43.7071 70.6946C39.8134 70.0858 36.3871 69.661 33.0174 68.7973C29.6476 67.9337 26.4335 66.447 22.7947 65.0595C22.9221 73.7245 18.986 80.9454 14.8234 88.5061C24.2105 88.3645 31.7289 91.6635 38.9498 96.9163C39.6152 87.9398 39.7993 79.3597 43.5797 70.7088L43.7212 70.6805L43.7071 70.6946Z" fill="#102185"/>
<path d="M93.6162 207.383C93.418 203.801 93.2341 200.219 93.2057 196.75C92.8801 154.954 92.5544 113.172 92.2287 71.3756C92.1154 58.8027 92.0164 46.2158 91.9031 33.6429C91.8323 32.6377 91.9032 31.6182 91.974 30.5847C92.3279 26.8893 94.3949 24.992 98.0337 25.077L194.525 27.8662C206.744 28.121 218.836 28.4184 231.054 28.6732C234.552 28.7865 236.746 30.2024 238.247 33.7845C239.493 36.8428 240.201 40.17 240.342 43.469C241.291 75.4249 242.254 107.367 243.202 139.323C243.854 161.778 244.491 184.234 245.142 206.689C245.185 209.578 244.335 212.367 242.65 214.618C241.107 216.841 238.813 217.62 236.619 216.204C234.636 215.043 232.343 214.519 230.063 214.717C212.931 214.505 195.757 214.151 178.625 213.938C162.342 213.684 146.074 213.429 129.848 213.457C121.155 213.457 112.447 214.023 103.641 214.179C96.8728 214.335 95.9949 213.655 93.6304 207.355L93.6162 207.383ZM103.768 203.447C105.241 203.56 106.274 203.631 107.435 203.673C113.934 203.574 120.475 203.036 127.002 203.079C144.559 203.206 162.102 203.334 179.687 203.589C196.691 203.829 213.54 204.098 230.375 204.24C231.536 204.282 232.81 204.141 234.396 204.098C232.782 148.965 231.125 94.2842 229.384 39.1931L102.196 35.7809C102.706 91.8631 103.131 147.549 103.612 203.489L103.754 203.461L103.768 203.447Z" fill="#102185"/>
<path d="M124.525 160.007C122.727 151.696 123.321 143.031 126.394 135.131C129.466 127.23 134.776 120.293 141.699 115.465C148.595 110.495 156.835 107.706 165.316 107.465C173.811 107.224 182.236 109.32 189.428 113.85C196.607 118.24 202.511 124.795 206.036 132.426C209.604 140.2 210.864 148.766 209.633 157.147C208.401 165.529 204.734 173.416 198.999 179.716C193.265 186.017 185.973 190.491 177.761 192.7C149.43 199.68 128.362 179.886 124.511 160.007H124.525ZM186.03 124.144C176.218 117.574 166.024 116.003 155.447 120.024C151.384 121.34 147.533 123.62 144.418 126.607C141.303 129.595 138.712 133.049 136.97 137.056C137.508 137.524 137.707 137.764 137.976 137.708C146.726 140.016 155.49 142.338 164.41 144.744C165.188 145.013 165.911 144.999 166.576 144.716C167.27 144.56 167.864 144.008 168.473 143.442C171.149 140.398 173.995 137.467 176.813 134.409C179.871 131.138 182.774 127.768 186.044 124.158L186.03 124.144ZM134.478 147.718C131.094 166.266 149.869 186.838 169.889 182.959L168.841 178.116C167.411 171.476 165.981 164.836 164.962 158.096C164.778 157.261 164.608 156.439 164.07 155.972C163.504 155.363 162.697 154.967 161.946 154.84L144.46 150.351C141.232 149.459 138.018 148.695 134.478 147.718ZM193.421 132.257C193.138 132.313 192.755 132.54 192.515 132.738C186.993 138.713 181.613 144.645 176.091 150.62C175.524 151.328 175.085 151.994 174.845 152.914C174.604 153.834 174.647 154.698 174.972 155.491C176.53 162.683 177.776 169.805 179.191 177.026C179.46 178.272 179.843 179.348 180.381 180.537C200.245 171.901 205.357 146.613 193.421 132.242V132.257Z" fill="#102185"/>
<path d="M192.656 66.2359C195.276 79.7148 187.517 92.1178 174.505 94.9212C171.319 95.615 168.19 95.8557 165.019 95.2327C161.876 94.7513 158.86 93.5195 156.17 91.778C153.479 90.0365 151.115 87.7994 149.232 85.1659C147.349 82.5324 146.145 79.6016 145.466 76.4159C142.535 62.852 150.633 50.6756 163.362 47.9288C176.926 44.998 189.003 52.6861 192.628 66.0943L192.656 66.2359ZM175.029 83.9341C182.009 80.6918 185.294 72.4515 181.598 66.7314C179.305 67.5101 176.813 68.0482 175 65.6978C173.075 63.5033 174.009 61.1246 175 59.0291C169.04 56.2541 163.589 57.1461 159.624 61.6202C161.734 63.3334 163.036 65.3722 161.918 68.2181C160.686 71.2338 157.911 71.1064 155.263 70.9507C154.655 76.869 158.095 82.0652 164.24 84.373C164.778 81.4988 165.797 78.8229 169.238 78.6671C172.679 78.4972 173.854 81.2864 174.845 83.835L175.015 83.9483L175.029 83.9341Z" fill="#102185"/>
</svg>

<svg xmlns="http://www.w3.org/2000/svg" width="352" height="254" fill="none" viewBox="0 0 352 254"><path fill="#102185" d="M246.615 234.482c.042 2.888.057 5.635-.071 8.41 0 1.303-.014 2.605-.198 3.809-.496 3.723-2.421 5.592-6.131 5.819-6.612.269-13.125.226-19.652.184-4.361-.071-6.414-2.237-6.683-6.81a686 686 0 0 1-.623-11.596c-15.135-.354-30.158-.156-45.265-.368-15.107-.213-29.988-.043-44.94-.156a832 832 0 0 1-1.132 12.842c-.609 5.196-2.45 6.753-7.533 6.697-5.833-.184-11.78-.213-17.613-.397-5.395-.141-7.448-2.308-7.448-7.66.029-1.883.199-3.808.184-5.833-.014-2.025.114-3.497.184-5.833-2.138.17-4.332.07-6.527-.043-2.053-.141-4.035-.58-5.79-1.359-3.554-1.699-4.517-4.814-4.46-8.594.056-12.474.127-24.934.07-37.237.1-28.417.029-56.932.128-85.334.056-27.241-.014-54.454.014-81.837.028-1.883.028-3.922.057-5.805.028-5.946 3.822-9.812 9.939-9.67 7.136.198 14.314.538 21.479.864 48.691 2.095 97.34 4.063 146.032 6.158 1.444-.028 2.775.128 4.149.411 1.67.368 3.157 1.204 4.176 2.577s1.515 3.002 1.43 4.616c.425 13.38.68 26.646 1.105 40.026.453 18.873 1.047 37.719 1.458 56.464.51 17.132.878 34.278 1.416 51.552.453 18.873 1.048 37.718 1.458 56.464.142 1.997 0 4.05-.127 6.117-.425 3.426-2.294 4.842-5.734 4.998-4.333.071-8.765.297-13.522.453l.17.113zM83.705 14.415c-.028 69.674-.099 139.221-.24 209.065l172.042.539c-1.742-67.848-3.54-135.243-5.338-202.638L83.578 14.585l.113-.17zm29.111 219.529-11.894-.043c-.793 4.375-.736 5.961.029 8.835l11.058.227c.339-3.115.467-5.89.807-9.005zm111.612.396c-.736 2.619-.028 5.225 0 8.113l11.724-.071c-.043-2.888.028-5.224.042-7.829l-11.638-.241-.142.028zM323.057 98.644c-.962.212-1.968.283-2.888.042s-1.869-.608-2.704-1.146-1.43-1.289-1.926-2.195c-.495-.906-.835-1.855-.878-2.704-.425-8.014-2.676-15.787-6.612-22.612-2.308-3.992-5.847-6.994-10.208-8.367-2.676-1.02-5.437-1.728-8.099-2.605-2.478-.765-4.417-2.38-4.856-5.04-.269-1.247.014-2.606.637-3.753s1.444-2.053 2.591-2.733c2.039-1.302 4.007-2.888 6.046-4.205 2.18-1.33 3.95-3.171 5.394-5.224s2.379-4.418 2.874-6.853c1.529-5.692 1.968-11.723 1.43-17.542-.226-2.407-.325-4.857-.141-7.363.198-3.809 1.656-5.72 4.601-6.201 1.529-.326 3.158-.1 4.644.736a6.5 6.5 0 0 1 3.186 3.37c1.345 2.902 2.449 5.989 3.667 8.92a27.65 27.65 0 0 0 8.693 11.454c5.735 4.417 11.653 8.353 18.916 9.826 4.404.934 5.664 5.437 2.832 9.09-2.364 3.115-5.069 6.017-7.575 9.16-9.104 11.525-15.319 24.31-16.155 39.262-.198 1.784-.694 3.483-1.529 4.97-.269.779-1.586 1.359-2.11 1.614l.17.113zm-8.736-74.021c-.594 3.313-1.175 6.626-2.067 9.868-1.033 3.271-2.506 6.485-4.36 9.345-2.011 2.747-4.092 5.225-6.499 7.49 9.104 3.256 14.838 9.684 18.689 18.845 4.871-10.322 10.123-19.567 17.458-27.807-9.119-4.701-16.948-10.11-23.263-17.869l.028.142zM46.638 114.53c-1.104.24-2.138.17-3.228-.17s-1.926-.892-2.662-1.6c-2.903-2.705-5.805-5.409-8.807-7.943-3.568-3.143-8.183-5.04-12.912-5.465-3.668-.227-7.42-.142-11.13.084-2.718.156-5.224-.028-6.894-2.42-1.671-2.393-1.048-4.843.34-7.165 1.387-2.322 2.76-4.658 4.318-6.867 5.55-7.858 7.957-17.5 6.612-27.071-.297-1.387-.184-2.86-.043-4.19.071-1.035.44-1.983 1.119-2.847.708-.736 1.586-1.359 2.563-1.571.976-.213 2.138-.17 3.086.198.949.368 1.827 1.062 2.308 1.968 4.007 5.805 10.039 8.269 16.523 9.472 4.474.623 9.203 1.062 13.706 1.104 4.247.241 6.88 3.724 5.422 7.66-.155.609-.48 1.119-.806 1.628-5.296 7.66-6.301 16.424-6.556 25.316-.156 4.672.382 9.189.51 13.79.07 3.03-1.727 5.437-3.667 5.862l.198.241zm-2.93-43.835c-3.895-.61-7.32-1.034-10.69-1.898s-6.585-2.35-10.223-3.737c.127 8.665-3.809 15.885-7.972 23.446 9.388-.141 16.906 3.157 24.127 8.41.665-8.976.85-17.556 4.63-26.207l.141-.029z"/><path fill="#102185" d="M93.616 207.383c-.198-3.582-.382-7.164-.41-10.633l-.977-125.374c-.114-12.573-.213-25.16-.326-37.733-.07-1.005 0-2.025.071-3.058.354-3.696 2.42-5.593 6.06-5.508l96.491 2.79c12.219.254 24.311.551 36.529.806 3.498.114 5.692 1.53 7.193 5.112a29.2 29.2 0 0 1 2.095 9.684c.949 31.956 1.912 63.898 2.86 95.854.652 22.455 1.289 44.911 1.94 67.366.043 2.889-.807 5.678-2.492 7.929-1.543 2.223-3.837 3.002-6.031 1.586a11.1 11.1 0 0 0-6.556-1.487c-17.132-.212-34.306-.566-51.438-.779-16.283-.254-32.551-.509-48.777-.481-8.693 0-17.401.566-26.207.722-6.768.156-7.646-.524-10.01-6.824zm10.152-3.936a87 87 0 0 0 3.667.226c6.499-.099 13.04-.637 19.567-.594 17.557.127 35.1.255 52.685.51 17.004.24 33.853.509 50.688.651 1.161.042 2.435-.099 4.021-.142a70764 70764 0 0 0-5.012-164.905l-127.188-3.412c.51 56.082.935 111.768 1.416 167.708l.142-.028z"/><path fill="#102185" d="M124.525 160.007c-1.798-8.311-1.204-16.976 1.869-24.876s8.382-14.838 15.305-19.666a42.5 42.5 0 0 1 23.617-8c8.495-.241 16.92 1.855 24.112 6.385 7.179 4.39 13.083 10.945 16.608 18.576 3.568 7.774 4.828 16.34 3.597 24.721s-4.899 16.269-10.634 22.569c-5.734 6.301-13.026 10.775-21.238 12.984-28.331 6.98-49.399-12.814-53.25-32.693zm61.505-35.863c-9.812-6.57-20.006-8.141-30.583-4.12a29 29 0 0 0-11.029 6.583c-3.115 2.988-5.706 6.442-7.448 10.449.538.468.737.708 1.006.652 8.75 2.308 17.514 4.63 26.434 7.036.778.269 1.501.255 2.166-.028.694-.156 1.288-.708 1.897-1.274 2.676-3.044 5.522-5.975 8.34-9.033 3.058-3.271 5.961-6.641 9.231-10.251zm-51.552 23.574c-3.384 18.548 15.391 39.12 35.411 35.241l-1.048-4.843c-1.43-6.64-2.86-13.28-3.879-20.02-.184-.835-.354-1.657-.892-2.124-.566-.609-1.373-1.005-2.124-1.132l-17.486-4.489c-3.228-.892-6.442-1.656-9.982-2.633m58.943-15.461c-.283.056-.666.283-.906.481-5.522 5.975-10.902 11.907-16.424 17.882-.567.708-1.006 1.374-1.246 2.294-.241.92-.198 1.784.127 2.577 1.558 7.192 2.804 14.314 4.219 21.535.269 1.246.652 2.322 1.19 3.511 19.864-8.636 24.976-33.924 13.04-48.295zM192.656 66.236c2.62 13.479-5.139 25.882-18.151 28.685-3.186.694-6.315.935-9.486.312-3.143-.482-6.159-1.714-8.849-3.455a25.7 25.7 0 0 1-6.938-6.612c-1.883-2.634-3.087-5.564-3.766-8.75-2.931-13.564 5.167-25.74 17.896-28.487 13.564-2.931 25.641 4.757 29.266 18.165zm-17.627 17.698c6.98-3.242 10.265-11.483 6.569-17.203-2.293.78-4.785 1.317-6.598-1.033-1.925-2.195-.991-4.573 0-6.669-5.96-2.775-11.411-1.883-15.376 2.591 2.11 1.713 3.412 3.752 2.294 6.598-1.232 3.016-4.007 2.888-6.655 2.733-.608 5.918 2.832 11.114 8.977 13.422.538-2.874 1.557-5.55 4.998-5.706 3.441-.17 4.616 2.62 5.607 5.168l.17.113z"/></svg>
